X: 14660
T: Gan Ainm
R: polka
M: 2/4
K: Dmajor
|:af ed|f2 ec|AB cd|e2 ef/g/|
af ed|f2 ec|AB ce|1 d2 df/g/:|2 d2 c>B||
|:AB cd|ed cB|AB cd|e2 e2|
AB cd|ed cB|AB ce|1 d2 d2:|2 d2 df/g/||

